svgs/regular/square-fragile.svg

<svg xmlns="http://www.w3.org/2000/svg" viewBox="0 0 448 512"><!--! Font Awesome Pro 6.5.1 by @fontawesome - https://fontawesome.com License - https://fontawesome.com/license (Commercial License) Copyright 2023 Fonticons, Inc. --><path d="M64 80c-8.8 0-16 7.2-16 16V416c0 8.8 7.2 16 16 16H384c8.8 0 16-7.2 16-16V96c0-8.8-7.2-16-16-16H64zM0 96C0 60.7 28.7 32 64 32H384c35.3 0 64 28.7 64 64V416c0 35.3-28.7 64-64 64H64c-35.3 0-64-28.7-64-64V96zm128 38.3c0-12.3 10-22.3 22.3-22.3H176l32 64-32 32 80 64-32-64 48-32-32-64h57.7c12.3 0 22.3 10 22.3 22.3V224c0 47.6-34.6 87.1-80 94.7V368h32c8.8 0 16 7.2 16 16s-7.2 16-16 16H176c-8.8 0-16-7.2-16-16s7.2-16 16-16h32V318.7c-45.4-7.6-80-47.1-80-94.7V134.3z"/></svg>

<svg xmlns="http://www.w3.org/2000/svg" viewBox="0 0 448 512"><!--! Font Awesome Pro 6.1.1 by @fontawesome - https://fontawesome.com License - https://fontawesome.com/license (Commercial License) Copyright 2022 Fonticons, Inc. --><path d="M128 134.3C128 121.1 137.1 112 150.3 112H176L208 176L176 208L256 272L224 208L272 176L240 112H297.7C310 112 320 121.1 320 134.3V224C320 271.6 285.4 311.1 240 318.7V368H272C280.8 368 288 375.2 288 384C288 392.8 280.8 400 272 400H176C167.2 400 160 392.8 160 384C160 375.2 167.2 368 176 368H208V318.7C162.6 311.1 128 271.6 128 224V134.3zM0 96C0 60.65 28.65 32 64 32H384C419.3 32 448 60.65 448 96V416C448 451.3 419.3 480 384 480H64C28.65 480 0 451.3 0 416V96zM48 96V416C48 424.8 55.16 432 64 432H384C392.8 432 400 424.8 400 416V96C400 87.16 392.8 80 384 80H64C55.16 80 48 87.16 48 96z"/></svg>
